src/img/social-twitter.svg

<svg xmlns="http://www.w3.org/2000/svg" width="36" height="36" viewBox="0 0 36 36">
  <path fill="#FFFFFF" fill-rule="evenodd" d="M18,36 C8.0588745,36 -1.21743675e-15,27.9411255 0,18 C1.21743675e-15,8.0588745 8.0588745,-6.08718376e-16 18,0 C27.9411255,6.08718376e-16 36,8.0588745 36,18 C36,27.9411255 27.9411255,36 18,36 Z M26.53,13.54 C25.8957066,13.8254335 25.2210525,14.0109634 24.53,14.09 C25.2588318,13.6553864 25.8031439,12.9687705 26.06,12.16 C25.3738731,12.5678301 24.623049,12.8553078 23.84,13.01 C22.856046,11.9913579 21.3540546,11.6683535 20.0383338,12.192449 C18.7226131,12.7165444 17.8540785,13.9838083 17.84,15.4 C17.8397408,15.6692071 17.8699327,15.9375797 17.93,16.2 C15.1166182,16.056785 12.4961273,14.7265497 10.72,12.54 C9.79561365,14.1384199 10.2676924,16.1797235 11.8,17.21 C11.2467978,17.1932383 10.7053999,17.0458958 10.22,16.78 C10.1985939,18.4523073 11.363297,19.9060913 13,20.25 C12.4876155,20.3863394 11.9512956,20.4068357 11.43,20.31 C11.8847547,21.7326618 13.1966092,22.7064925 14.69,22.73 C13.4531482,23.7037715 11.9241754,24.2322183 10.35,24.23 C10.0726249,24.2285926 9.79553814,24.2119007 9.52,24.18 C12.5793115,26.13889 16.4635737,26.2728465 19.6505687,24.5293728 C22.8375636,22.7858991 24.8196267,19.4427176 24.82,15.81 C24.82,15.65 24.82,15.5 24.82,15.35 C25.5071671,14.8597227 26.0971928,14.2459604 26.56,13.54 L26.53,13.54 Z"/>
</svg>

<svg xmlns="http://www.w3.org/2000/svg" width="36" height="36"><path fill="#FFF" fill-rule="evenodd" d="M18 36C8.059 36 0 27.941 0 18S8.059 0 18 0s18 8.059 18 18-8.059 18-18 18zm8.53-22.46a6.74 6.74 0 0 1-2 .55 3.47 3.47 0 0 0 1.53-1.93 7 7 0 0 1-2.22.85 3.49 3.49 0 0 0-6 2.39c0 .27.03.538.09.8a9.94 9.94 0 0 1-7.21-3.66 3.51 3.51 0 0 0 1.08 4.67 3.51 3.51 0 0 1-1.58-.43A3.5 3.5 0 0 0 13 20.25a3.57 3.57 0 0 1-1.57.06 3.48 3.48 0 0 0 3.26 2.42 7 7 0 0 1-5.17 1.45 9.94 9.94 0 0 0 15.3-8.37v-.46a6.81 6.81 0 0 0 1.74-1.81h-.03z"/></svg>
